packages/foundations/assets/icons/functional/images/business & payment/sepa_28.svg

<svg width="28" height="28" viewBox="0 0 28 28" fill="none" xmlns="http://www.w3.org/2000/svg">
<g clip-path="url(#clip0_184_85)">
<path fill-rule="evenodd" clip-rule="evenodd" d="M5.588 18.375C6.206 18.375 6.8 18.534 7.291 18.805C7.633 18.993 7.767 19.442 7.591 19.808C7.415 20.174 6.995 20.318 6.653 20.13C6.32538 19.9551 5.9594 19.8643 5.588 19.866C5.232 19.866 5.11 19.99 5.11 20.29C5.11 20.642 5.291 20.9 5.904 21.38L6.211 21.613C7.418 22.51 7.875 23.046 7.875 24.115C7.875 25.366 6.942 26.25 5.686 26.25C5.02251 26.247 4.37459 26.0487 3.823 25.68C3.66468 25.5664 3.55481 25.3975 3.51518 25.2067C3.47554 25.0159 3.50903 24.8172 3.609 24.65C3.6926 24.5007 3.82997 24.389 3.99311 24.3375C4.15626 24.2861 4.33289 24.2987 4.487 24.373L4.57 24.421C4.90144 24.6393 5.28912 24.7567 5.686 24.759C6.208 24.759 6.482 24.499 6.482 24.115C6.482 23.85 6.372 23.638 6.032 23.331L5.824 23.153L5.566 22.95L5.399 22.825C4.179 21.918 3.717 21.375 3.717 20.29C3.717 19.15 4.477 18.375 5.588 18.375ZM16.277 18.375C17.63 18.375 18.375 19.227 18.375 20.805C18.375 22.321 17.7 23.143 16.438 23.206L16.277 23.21H15.393V25.504C15.393 25.884 15.127 26.198 14.783 26.244L14.697 26.25C14.341 26.25 14.048 25.966 14.005 25.598L14 25.504V19.121C14 18.741 14.266 18.427 14.61 18.381L14.697 18.375H16.277ZM12.307 18.375C12.691 18.375 13.003 18.709 13.003 19.121C13.003 19.501 12.738 19.814 12.394 19.861L12.307 19.866H10.142V21.414L11.787 21.415C12.171 21.415 12.483 21.749 12.483 22.161C12.483 22.541 12.217 22.854 11.874 22.901L11.787 22.906H10.142V24.758H12.428C12.784 24.758 13.077 25.043 13.12 25.411L13.125 25.504C13.125 25.884 12.859 26.198 12.515 26.244L12.428 26.25H9.447C9.091 26.25 8.798 25.966 8.755 25.598L8.75 25.504V19.121C8.75 18.741 9.016 18.427 9.36 18.381L9.447 18.375H12.307ZM22.251 18.705L22.305 18.797L22.347 18.899L24.464 25.283C24.594 25.676 24.36 26.093 23.941 26.216C23.555 26.329 23.145 26.151 22.982 25.813L22.947 25.726L22.38 24.015H20.577L19.918 25.754C19.784 26.11 19.391 26.31 19.008 26.234L18.904 26.207C18.524 26.08 18.311 25.712 18.392 25.352L18.422 25.255L20.84 18.871C21.069 18.267 21.913 18.218 22.251 18.705ZM21.538 21.478L21.141 22.524H21.885L21.538 21.478ZM15.393 19.866V21.719H16.277C16.857 21.719 16.982 21.578 16.982 20.804C16.982 20.074 16.856 19.887 16.372 19.868L16.277 19.866H15.393ZM22.75 1.75C24.199 1.75 25.375 2.953 25.375 4.375V13.987C25.375 15.436 24.172 16.612 22.75 16.612H5.25C3.801 16.612 2.625 15.409 2.625 13.987V4.375C2.62527 3.67889 2.90191 3.01136 3.39414 2.51914C3.88636 2.02691 4.55389 1.75027 5.25 1.75H22.75ZM22.75 3.5H5.25C5.01794 3.5 4.79538 3.59219 4.63128 3.75628C4.46719 3.92038 4.375 4.14294 4.375 4.375V14C4.375 14.483 4.767 14.875 5.25 14.875H22.75C22.9821 14.875 23.2046 14.7828 23.3687 14.6187C23.5328 14.4546 23.625 14.2321 23.625 14V4.375C23.625 4.14294 23.5328 3.92038 23.3687 3.75628C23.2046 3.59219 22.9821 3.5 22.75 3.5ZM15.75 11.375C15.9821 11.375 16.2046 11.4672 16.3687 11.6313C16.5328 11.7954 16.625 12.0179 16.625 12.25C16.625 12.4821 16.5328 12.7046 16.3687 12.8687C16.2046 13.0328 15.9821 13.125 15.75 13.125H7C6.76794 13.125 6.54538 13.0328 6.38128 12.8687C6.21719 12.7046 6.125 12.4821 6.125 12.25C6.125 12.0179 6.21719 11.7954 6.38128 11.6313C6.54538 11.4672 6.76794 11.375 7 11.375H15.75ZM21 5.25C21.483 5.25 21.875 5.642 21.875 6.125V7C21.875 7.23206 21.7828 7.45462 21.6187 7.61872C21.4546 7.78281 21.2321 7.875 21 7.875H20.125C19.8929 7.875 19.6704 7.78281 19.5063 7.61872C19.3422 7.45462 19.25 7.23206 19.25 7V6.125C19.25 5.642 19.642 5.25 20.125 5.25H21Z" fill="#1A1C1F"/>
</g>
<defs>
<clipPath id="clip0_184_85">
<rect width="28" height="28" fill="white"/>
</clipPath>
</defs>
</svg>

<svg xmlns="http://www.w3.org/2000/svg" width="28" height="28" fill="none"><g clip-path="url(#a)"><path fill="#1A1C1F" fill-rule="evenodd" d="M5.588 18.375c.618 0 1.212.159 1.703.43.342.188.476.637.3 1.003s-.596.51-.938.322a2.24 2.24 0 0 0-1.065-.264c-.356 0-.478.124-.478.424 0 .352.181.61.794 1.09l.307.233c1.207.897 1.664 1.433 1.664 2.502 0 1.251-.933 2.135-2.189 2.135a3.4 3.4 0 0 1-1.863-.57.777.777 0 0 1-.214-1.03.67.67 0 0 1 .878-.277l.083.048c.331.218.72.336 1.116.338.522 0 .796-.26.796-.644 0-.265-.11-.477-.45-.784l-.208-.178-.258-.203-.167-.125c-1.22-.907-1.682-1.45-1.682-2.535 0-1.14.76-1.915 1.871-1.915m10.689 0c1.353 0 2.098.852 2.098 2.43 0 1.516-.675 2.338-1.937 2.401l-.161.004h-.884v2.294c0 .38-.266.694-.61.74l-.086.006c-.356 0-.649-.284-.692-.652L14 25.504v-6.383c0-.38.266-.694.61-.74l.087-.006zm-3.97 0c.384 0 .696.334.696.746 0 .38-.265.693-.609.74l-.087.005h-2.165v1.548l1.645.001c.384 0 .696.334.696.746 0 .38-.266.693-.609.74l-.087.005h-1.645v1.852h2.286c.356 0 .649.285.692.653l.005.093c0 .38-.266.694-.61.74l-.087.006H9.447c-.356 0-.649-.284-.692-.652l-.005-.094v-6.383c0-.38.266-.694.61-.74l.087-.006zm9.944.33.054.092.042.102 2.117 6.384c.13.393-.104.81-.523.933-.386.113-.796-.065-.959-.403l-.035-.087-.567-1.711h-1.803l-.659 1.739c-.134.356-.527.556-.91.48l-.104-.027c-.38-.127-.593-.495-.512-.855l.03-.097 2.418-6.384c.229-.604 1.073-.653 1.411-.166m-.713 2.773-.397 1.046h.744zm-6.145-1.612v1.853h.884c.58 0 .705-.141.705-.915 0-.73-.126-.917-.61-.936l-.095-.002zM22.75 1.75c1.449 0 2.625 1.203 2.625 2.625v9.612c0 1.449-1.203 2.625-2.625 2.625H5.25c-1.449 0-2.625-1.203-2.625-2.625V4.375A2.626 2.626 0 0 1 5.25 1.75zm0 1.75H5.25a.875.875 0 0 0-.875.875V14c0 .483.392.875.875.875h17.5a.875.875 0 0 0 .875-.875V4.375a.875.875 0 0 0-.875-.875m-7 7.875a.875.875 0 1 1 0 1.75H7a.875.875 0 0 1 0-1.75zM21 5.25c.483 0 .875.392.875.875V7a.875.875 0 0 1-.875.875h-.875A.875.875 0 0 1 19.25 7v-.875c0-.483.392-.875.875-.875z" clip-rule="evenodd"/></g><defs><clipPath id="a"><path fill="#fff" d="M0 0h28v28H0z"/></clipPath></defs></svg>
